frontend/public/svg/emojis/smiling-with-eyes-emoji.svg

<svg width="160" height="155" viewBox="0 0 160 155" fill="none" xmlns="http://www.w3.org/2000/svg">
<path d="M77.641 109.484C72.9009 109.484 65.9845 107.282 59.4934 103.692C55.9045 101.703 52.8079 99.087 50.9573 95.2983C50.3885 94.3292 50.0498 93.2424 49.9673 92.1217C49.9971 91.0383 50.0351 90.0267 51.0894 89.5737C51.6234 89.3877 52.1991 89.3564 52.7502 89.4832C53.3013 89.6101 53.8053 89.89 54.2042 90.2908C55.4807 91.5232 56.1747 93.4206 57.5453 94.4817C66.8574 101.695 77.1602 104.852 88.8085 101.248C94.2358 99.5683 98.0015 95.7554 100.849 90.9551C101.535 89.7978 102.028 88.3284 103.041 87.614C104.176 86.8143 106.105 86.0328 107.127 86.492C108.149 86.9511 108.975 88.9466 108.99 90.2786C109.005 91.7256 108.188 93.3061 107.389 94.619C101.248 104.714 92.1908 109.602 77.641 109.484Z" fill="black"/>
<path d="M48.7689 46.7527C56.5141 46.5808 61.2223 49.154 65.1558 53.3597C65.8554 54.0913 66.4025 54.9547 66.7654 55.8997C67.6822 58.4559 65.8553 60.6607 63.2585 59.8447C61.3835 59.1397 59.6673 58.0693 58.2096 56.6954C54.6627 53.6259 50.8044 52.8098 46.2844 54.0463C39.6382 55.8644 34.3666 59.2137 31.658 65.8659C31.0412 67.38 30.0464 68.7838 28.0956 68.1371C26.0134 67.4471 25.7736 65.4705 26.4596 63.9388C27.8179 60.9072 29.2135 57.709 31.3655 55.253C36.3662 49.5493 43.2061 47.3906 48.7689 46.7527Z" fill="black"/>
<path d="M128.999 55.286C128.647 55.7519 128.071 57.2802 127.103 57.5931C126.476 57.7121 125.831 57.6926 125.212 57.5359C124.594 57.3791 124.017 57.089 123.523 56.6858C122.394 55.6958 121.753 54.1234 120.986 52.7542C120.513 51.7836 119.747 50.9866 118.796 50.4761C117.844 49.9656 116.756 49.7676 115.686 49.9102C109.777 50.4194 104.475 52.115 100.66 57.1178C100.081 57.8775 98.0438 57.8937 97.6625 57.5449C96.8499 56.8001 96.0956 55.8521 96.382 54.9129C96.9428 53.2144 97.9063 51.677 99.1901 50.4316C104.299 45.4302 110.651 43.4299 117.672 43.6236C122.98 43.7671 128.8 49.51 128.999 55.286Z" fill="black"/>
<path d="M44.2051 75.5854C45.3123 76.1089 46.525 77.6676 46.5751 78.8113C46.5179 79.5021 46.3007 80.1701 45.9409 80.7626C45.581 81.355 45.0884 81.8556 44.5017 82.2248C40.3135 84.37 35.7929 85.2273 31.1368 83.9441C29.4047 83.4701 27.7274 82.5953 27.5967 80.3804C27.4701 78.2352 28.8027 76.9533 30.5375 76.3114C33.0281 75.3904 42.4391 74.7505 44.2051 75.5854Z" fill="black"/>
<path d="M120.918 78.5489C117.829 77.3348 117.058 74.0643 119.461 71.8148C120.841 70.5528 122.524 69.6701 124.347 69.253C126.265 68.8379 128.375 69.0864 130.374 69.3099C132.321 69.5279 134.129 70.2457 134.66 72.4776C134.962 73.4622 134.91 74.5213 134.513 75.4717C134.116 76.422 133.4 77.2037 132.488 77.6815C130.481 78.7595 122.457 79.1543 120.918 78.5489Z" fill="black"/>
<path d="M3.27272 55.9748C-3.73711 83.5259 2.40121 107.831 21.5299 128.223C22.0283 128.75 22.5355 129.277 23.0434 129.785C33.3184 140.06 46.1171 146.404 56.2588 150.819C60.6115 152.719 82.9451 155.028 88.988 154.128C124.899 148.765 148.531 128.511 156.762 94.625C158.333 87.9873 159.116 81.1873 159.094 74.3661C159.132 58.2974 152.366 39.6163 138.414 25.6251C136.977 24.4373 135.546 23.2069 134.162 22.0145C131.16 19.4339 128.057 16.762 124.81 14.4834C100.013 -2.97008 74.2479 -3.06774 48.2339 6.1875C24.6807 14.5618 9.55529 31.3158 3.27272 55.9748ZM48.3341 14.4373C71.1594 4.95246 94.0612 3.27855 116.398 17.4844C120.482 20.0847 131.371 28.8849 133.085 30.2067L133.195 30.2879L133.286 30.3889C142 39.6299 151.978 56.5268 151.758 73.8963C151.686 81.3232 150.68 88.7115 148.766 95.8878C143.092 116.511 129.527 131.541 107.295 141.821C84.6956 152.642 52.2846 141.702 43.6611 136.01C34.1295 129.493 25.7895 121.386 19.0056 112.043C8.36622 96.9802 5.97929 75.3276 11.6958 55.5339C14.3715 46.3948 19.0474 37.9656 25.3844 30.8574C31.7214 23.7493 39.5608 18.1403 48.3341 14.4373Z" fill="black"/>
</svg>

<svg xmlns="http://www.w3.org/2000/svg" width="160" height="155" fill="none" viewBox="0 0 160 155"><path fill="#000" d="M77.641 109.484c-4.74 0-11.657-2.202-18.148-5.792-3.589-1.989-6.685-4.605-8.536-8.394a7.34 7.34 0 0 1-.99-3.176c.03-1.084.068-2.095 1.122-2.548a3 3 0 0 1 3.115.717c1.277 1.232 1.97 3.13 3.341 4.19 9.312 7.214 19.615 10.371 31.263 6.767 5.428-1.68 9.193-5.493 12.041-10.293.686-1.157 1.179-2.627 2.192-3.341 1.135-.8 3.064-1.581 4.086-1.122 1.022.46 1.848 2.455 1.863 3.787.015 1.447-.802 3.027-1.601 4.34-6.141 10.095-15.198 14.983-29.748 14.865M48.769 46.753c7.745-.172 12.453 2.401 16.387 6.607a7.6 7.6 0 0 1 1.61 2.54c.916 2.556-.91 4.76-3.508 3.945a15.1 15.1 0 0 1-5.048-3.15c-3.547-3.07-7.406-3.885-11.926-2.649-6.646 1.818-11.917 5.168-14.626 11.82-.617 1.514-1.612 2.918-3.562 2.271-2.083-.69-2.322-2.666-1.636-4.198 1.358-3.032 2.753-6.23 4.906-8.686 5-5.704 11.84-7.862 17.403-8.5m80.23 8.533c-.352.466-.928 1.994-1.896 2.307a4.38 4.38 0 0 1-3.58-.907c-1.129-.99-1.77-2.563-2.537-3.932a5.14 5.14 0 0 0-5.3-2.844c-5.909.51-11.211 2.205-15.026 7.208-.579.76-2.616.776-2.998.427-.812-.745-1.566-1.693-1.28-2.632a11.1 11.1 0 0 1 2.808-4.481c5.109-5.002 11.461-7.002 18.482-6.808 5.308.143 11.128 5.886 11.327 11.662M44.205 75.585c1.107.524 2.32 2.083 2.37 3.226a4.47 4.47 0 0 1-2.073 3.414c-4.189 2.145-8.71 3.002-13.365 1.72-1.732-.475-3.41-1.35-3.54-3.565-.127-2.145 1.206-3.427 2.94-4.069 2.491-.92 11.902-1.56 13.668-.726m76.713 2.964c-3.089-1.214-3.86-4.485-1.457-6.734a10.8 10.8 0 0 1 4.886-2.562c1.918-.415 4.028-.167 6.027.057 1.947.218 3.755.936 4.286 3.168a4.41 4.41 0 0 1-2.172 5.204c-2.007 1.078-10.031 1.472-11.57.867"/><path fill="#000" d="M3.273 55.975c-7.01 27.55-.872 51.856 18.257 72.248a79 79 0 0 0 1.513 1.562c10.275 10.275 23.074 16.619 33.216 21.034 4.352 1.9 26.686 4.209 32.729 3.309 35.911-5.363 59.543-25.617 67.774-59.503a86.8 86.8 0 0 0 2.332-20.259c.038-16.069-6.728-34.75-20.68-48.74a274 274 0 0 1-4.252-3.611c-3.002-2.581-6.105-5.253-9.352-7.532C100.013-2.97 74.248-3.067 48.234 6.188 24.68 14.562 9.555 31.316 3.273 55.975m45.061-41.538C71.16 4.952 94.061 3.28 116.398 17.484c4.084 2.6 14.973 11.4 16.687 12.723l.11.08.091.102c8.714 9.24 18.692 26.138 18.472 43.507a88.7 88.7 0 0 1-2.992 21.992c-5.674 20.623-19.239 35.653-41.471 45.933-22.6 10.821-55.01-.119-63.634-5.811a100.7 100.7 0 0 1-24.655-23.967c-10.64-15.063-13.027-36.715-7.31-56.51a64.18 64.18 0 0 1 36.638-41.096"/></svg>
